svg/emoji_u1faae.svg

<?xml version="1.0" encoding="utf-8"?>
<!-- Generator: Adobe Illustrator 26.3.1, SVG Export Plug-In . SVG Version: 6.00 Build 0)  -->
<svg version="1.1" id="Layer_4" xmlns="http://www.w3.org/2000/svg" xmlns:xlink="http://www.w3.org/1999/xlink" x="0" y="0"
	 viewBox="0 0 128 128" style="enable-background:new 0 0 128 128;" xml:space="preserve">
<g>
	<rect x="31.95" y="63.46" transform="matrix(-0.7071 -0.7071 0.7071 -0.7071 54.0855 158.6164)" width="55.89" height="9.3"/>
	<path style="fill:#4C4C4C;" d="M30.13,73.39c3.24,12.48-3.08,16.56-6.37,18.49c-3.29,1.93-5.43,2.57-9.52,3.99
		c-2.1,0.73-4.09,1.94-5.79,3.64c-5.77,5.77-5.95,14.92-0.42,20.45c5.53,5.53,14.68,5.35,20.45-0.42c1.7-1.7,2.91-3.68,3.64-5.79
		c1.42-4.1,2.07-6.23,3.99-9.52c1.93-3.29,6.01-9.61,18.49-6.37c11.84,3.07,17.7,1.58,22.85-3.57l3.64-3.64l-0.02-0.02l42.29-44.22
		c0.63-0.63,0.91-1.8,0.21-2.49c-0.7-0.7-1.95-0.25-2.51,0.24L78.1,85.27c-0.68,0.65-1.75,0.64-2.41-0.03l0,0
		c-0.66-0.66-0.67-1.73-0.03-2.41l41.12-42.99c0.61-0.62,0.91-1.8,0.21-2.5c-0.7-0.7-1.94-0.28-2.51,0.23L71.51,78.68
		c-0.68,0.65-1.75,0.64-2.41-0.03l0,0c-0.66-0.66-0.67-1.73-0.03-2.41l41.12-42.99c0.59-0.61,0.92-1.8,0.22-2.5s-1.92-0.31-2.5,0.23
		L64.93,72.1c-0.68,0.65-1.75,0.64-2.41-0.03l0,0c-0.66-0.66-0.67-1.73-0.03-2.41l41.12-42.99c0.56-0.59,0.92-1.8,0.22-2.5
		c-0.7-0.7-1.91-0.34-2.5,0.22L58.34,65.51c-0.68,0.65-1.75,0.64-2.41-0.03l0,0c-0.66-0.66-0.67-1.73-0.03-2.41l41.11-42.99
		c0.54-0.58,0.93-1.81,0.23-2.5c-0.7-0.7-1.89-0.37-2.5,0.22L51.75,58.92c-0.68,0.65-1.75,0.64-2.41-0.03l0,0
		c-0.66-0.66-0.67-1.73-0.03-2.41L90.42,13.5c0.51-0.57,0.93-1.81,0.23-2.51c-0.7-0.7-1.88-0.39-2.5,0.21L45.17,52.34
		c-0.68,0.65-1.75,0.64-2.41-0.03l0,0c-0.66-0.66-0.67-1.73-0.03-2.41l41.1-42.98c0.49-0.56,0.93-1.81,0.24-2.51
		c-0.7-0.7-1.86-0.42-2.49,0.21L37.36,46.91l-0.02-0.02l-3.64,3.64C28.55,55.7,27.05,61.55,30.13,73.39z M21.75,106.25
		c1.76,1.76,1.76,4.62,0,6.39c-1.76,1.76-4.62,1.76-6.39,0c-1.76-1.76-1.76-4.62,0-6.39C17.12,104.49,19.98,104.49,21.75,106.25z"/>
	<path style="fill:#2F7889;" d="M38.34,54.33c1.49,1.49,0.04,3.37-1.07,5.37s-1.65,7.11-0.68,13.01c0.71,4.35-0.07,7.83-1.58,10.47
		c-1.11,1.93-2.72,1.73-1.48-0.87c1.24-2.61,1.26-5.65,0.61-9.22c-1-5.46-2.52-10.9-1.04-15.11C33.89,55.73,36.43,52.42,38.34,54.33
		z"/>
	<path d="M13.27,114.73c2.27,2.27,5.95,2.27,8.21,0c1.43-1.43,1.95-3.41,1.59-5.25c-0.01,1.14-0.45,2.29-1.32,3.16
		c-1.76,1.76-4.62,1.76-6.39,0c-1.76-1.76-1.76-4.62,0-6.39c0.87-0.87,2.01-1.31,3.16-1.32c-1.84-0.37-3.82,0.16-5.25,1.59
		C11,108.79,11,112.46,13.27,114.73z"/>
	<path style="fill:#2F7889;" d="M13.45,117.38c-3.5-1.65-4.72-5.08-4.21-8.56c0.51-3.47,1.92-6.16,6.45-7.06
		c0.52-0.1,1.03-0.28,1.03-0.95c0-0.69-0.79-0.94-1.3-0.94c-4.93,0-8.26,4.16-8.97,9.02c-0.71,4.86,1.94,9.84,5.96,11.42
		c1.03,0.4,2.53,0.47,2.85-0.64C15.63,118.33,14.16,117.71,13.45,117.38z"/>
</g>
</svg>

<?xml version="1.0" encoding="UTF-8" standalone="no"?>
<!DOCTYPE svg PUBLIC "-//W3C//DTD SVG 1.1//EN" "http://www.w3.org/Graphics/SVG/1.1/DTD/svg11.dtd">
<svg width="100%" height="100%" viewBox="0 0 128 128" version="1.1" xmlns="http://www.w3.org/2000/svg" xmlns:xlink="http://www.w3.org/1999/xlink" xml:space="preserve" xmlns:serif="http://www.serif.com/" style="fill-rule:evenodd;clip-rule:evenodd;stroke-linejoin:round;stroke-miterlimit:2;">
    <g id="g39548">
        <path id="path39540" d="M30.13,73.39C33.37,85.87 27.05,89.95 23.76,91.88C20.47,93.81 18.33,94.45 14.24,95.87C12.14,96.6 10.15,97.81 8.45,99.51C2.68,105.28 2.5,114.43 8.03,119.96C13.56,125.49 22.71,125.31 28.48,119.54C30.18,117.84 31.39,115.86 32.12,113.75C33.54,109.65 34.19,107.52 36.11,104.23C38.04,100.94 42.12,94.62 54.6,97.86C66.44,100.93 72.3,99.44 77.45,94.29L81.09,90.65L81.07,90.63L123.36,46.41C123.99,45.78 124.27,44.61 123.57,43.92C122.87,43.22 121.62,43.67 121.06,44.16L78.1,85.27C77.42,85.92 76.35,85.91 75.69,85.24C75.03,84.58 75.02,83.51 75.66,82.83L116.78,39.84C117.39,39.22 117.69,38.04 116.99,37.34C116.29,36.64 115.05,37.06 114.48,37.57L71.51,78.68C70.83,79.33 69.76,79.32 69.1,78.65C68.44,77.99 68.43,76.92 69.07,76.24L110.19,33.25C110.78,32.64 111.11,31.45 110.41,30.75C109.71,30.05 108.49,30.44 107.91,30.98L64.93,72.1C64.25,72.75 63.18,72.74 62.52,72.07C61.86,71.41 61.85,70.34 62.49,69.66L103.61,26.67C104.17,26.08 104.53,24.87 103.83,24.17C103.13,23.47 101.92,23.83 101.33,24.39L58.34,65.51C57.66,66.16 56.59,66.15 55.93,65.48C55.27,64.82 55.26,63.75 55.9,63.07L97.01,20.08C97.55,19.5 97.94,18.27 97.24,17.58C96.54,16.88 95.35,17.21 94.74,17.8L51.75,58.92C51.07,59.57 50,59.56 49.34,58.89C48.68,58.23 48.67,57.16 49.31,56.48L90.42,13.5C90.93,12.93 91.35,11.69 90.65,10.99C89.95,10.29 88.77,10.6 88.15,11.2L45.17,52.34C44.49,52.99 43.42,52.98 42.76,52.31C42.1,51.65 42.09,50.58 42.73,49.9L83.83,6.92C84.32,6.36 84.76,5.11 84.07,4.41C83.37,3.71 82.21,3.99 81.58,4.62L37.36,46.91L37.34,46.89L33.7,50.53C28.55,55.7 27.05,61.55 30.13,73.39ZM21.75,106.25C23.51,108.01 23.51,110.87 21.75,112.64C19.99,114.4 17.13,114.4 15.36,112.64C13.6,110.88 13.6,108.02 15.36,106.25C17.12,104.49 19.98,104.49 21.75,106.25Z" style="fill:rgb(101,147,162);fill-rule:nonzero;"/>
    </g>
</svg>
